assets/images/icons/documentation/icn-clustering.svg

<svg xmlns="http://www.w3.org/2000/svg" preserveAspectRatio="xMidYMid" width="32" height="32" viewBox="0 0 32 32"><defs><style>.cls-2{fill:#9daab3}</style></defs><path d="M30.257 23.235C31.316 24.152 32 25.49 32 27a5 5 0 0 1-5 5c-1.51 0-2.848-.684-3.765-1.743A15.91 15.91 0 0 1 16 32a15.91 15.91 0 0 1-7.235-1.743C7.848 31.316 6.51 32 5 32a5 5 0 0 1-5-5c0-1.51.684-2.848 1.743-3.765A15.91 15.91 0 0 1 0 16c0-2.607.637-5.06 1.743-7.235C.684 7.848 0 6.51 0 5a5 5 0 0 1 5-5c1.51 0 2.848.684 3.765 1.743A15.91 15.91 0 0 1 16 0c2.605 0 5.04.663 7.212 1.77C24.129.696 25.477 0 27 0a5 5 0 0 1 5 5c0 1.523-.696 2.871-1.77 3.788C31.337 10.96 32 13.395 32 16c0 2.607-.637 5.06-1.743 7.235zM5 30a3 3 0 1 0 0-6 3 3 0 0 0 0 6zM5 2a3 3 0 1 0 0 6 3 3 0 0 0 0-6zm22 0a3 3 0 1 0 0 6 3 3 0 0 0 0-6zm1.482 7.751A4.945 4.945 0 0 1 27 10a5 5 0 0 1-5-5c0-.52.102-1.011.249-1.482C20.364 2.568 18.255 2 16 2a13.92 13.92 0 0 0-6.258 1.49c.153.479.258.98.258 1.51a5 5 0 0 1-5 5c-.53 0-1.031-.105-1.51-.258A13.92 13.92 0 0 0 2 16c0 2.252.545 4.373 1.49 6.258C3.969 22.105 4.47 22 5 22a5 5 0 0 1 5 5c0 .53-.105 1.031-.258 1.51A13.92 13.92 0 0 0 16 30a13.92 13.92 0 0 0 6.258-1.49A4.936 4.936 0 0 1 22 27a5 5 0 0 1 5-5c.53 0 1.031.105 1.51.258A13.92 13.92 0 0 0 30 16c0-2.255-.568-4.364-1.518-6.249zM27 24a3 3 0 1 0 0 6 3 3 0 0 0 0-6z" id="path-1" class="cls-2" fill-rule="evenodd"/></svg>

<svg xmlns="http://www.w3.org/2000/svg" xmlns:xlink="http://www.w3.org/1999/xlink" preserveAspectRatio="xMidYMid" width="32" height="32" viewBox="0 0 32 32">
  <defs>
    <style>

      .cls-2 {
        fill: #9daab3;
      }
    </style>
  </defs>
  <path d="M30.257,23.235 C30.257,23.235 30.257,23.235 30.257,23.235 C31.316,24.152 32.000,25.490 32.000,27.000 C32.000,29.761 29.761,32.000 27.000,32.000 C25.490,32.000 24.152,31.316 23.235,30.257 C23.235,30.257 23.235,30.257 23.235,30.257 C21.060,31.363 18.607,32.000 16.000,32.000 C13.393,32.000 10.940,31.363 8.765,30.257 C8.765,30.257 8.765,30.257 8.765,30.257 C7.848,31.316 6.510,32.000 5.000,32.000 C2.239,32.000 0.000,29.761 0.000,27.000 C0.000,25.490 0.684,24.152 1.743,23.235 C1.743,23.235 1.743,23.235 1.743,23.235 C0.637,21.060 0.000,18.607 0.000,16.000 C0.000,13.393 0.637,10.940 1.743,8.765 C1.743,8.765 1.743,8.765 1.743,8.765 C0.684,7.848 0.000,6.510 0.000,5.000 C0.000,2.239 2.239,0.000 5.000,0.000 C6.510,0.000 7.848,0.684 8.765,1.743 C8.765,1.743 8.765,1.743 8.765,1.743 C10.940,0.637 13.393,0.000 16.000,0.000 C18.605,0.000 21.040,0.663 23.212,1.770 C24.129,0.696 25.477,0.000 27.000,0.000 C29.761,0.000 32.000,2.239 32.000,5.000 C32.000,6.523 31.304,7.871 30.230,8.788 C31.337,10.960 32.000,13.395 32.000,16.000 C32.000,18.607 31.363,21.060 30.257,23.235 ZM5.000,30.000 C6.657,30.000 8.000,28.657 8.000,27.000 C8.000,25.343 6.657,24.000 5.000,24.000 C3.343,24.000 2.000,25.343 2.000,27.000 C2.000,28.657 3.343,30.000 5.000,30.000 ZM5.000,2.000 C3.343,2.000 2.000,3.343 2.000,5.000 C2.000,6.657 3.343,8.000 5.000,8.000 C6.657,8.000 8.000,6.657 8.000,5.000 C8.000,3.343 6.657,2.000 5.000,2.000 ZM27.000,2.000 C25.343,2.000 24.000,3.343 24.000,5.000 C24.000,6.657 25.343,8.000 27.000,8.000 C28.657,8.000 30.000,6.657 30.000,5.000 C30.000,3.343 28.657,2.000 27.000,2.000 ZM28.482,9.751 C28.011,9.898 27.520,10.000 27.000,10.000 C24.239,10.000 22.000,7.761 22.000,5.000 C22.000,4.480 22.102,3.989 22.249,3.518 C20.364,2.568 18.255,2.000 16.000,2.000 C13.748,2.000 11.627,2.545 9.742,3.490 C9.895,3.969 10.000,4.470 10.000,5.000 C10.000,7.761 7.761,10.000 5.000,10.000 C4.470,10.000 3.969,9.895 3.490,9.742 C2.545,11.627 2.000,13.748 2.000,16.000 C2.000,18.252 2.545,20.373 3.490,22.258 C3.969,22.105 4.470,22.000 5.000,22.000 C7.761,22.000 10.000,24.239 10.000,27.000 C10.000,27.530 9.895,28.031 9.742,28.510 C11.627,29.455 13.748,30.000 16.000,30.000 C18.252,30.000 20.373,29.455 22.258,28.510 C22.105,28.031 22.000,27.530 22.000,27.000 C22.000,24.239 24.239,22.000 27.000,22.000 C27.530,22.000 28.031,22.105 28.510,22.258 C29.455,20.373 30.000,18.252 30.000,16.000 C30.000,13.745 29.432,11.636 28.482,9.751 ZM27.000,24.000 C25.343,24.000 24.000,25.343 24.000,27.000 C24.000,28.657 25.343,30.000 27.000,30.000 C28.657,30.000 30.000,28.657 30.000,27.000 C30.000,25.343 28.657,24.000 27.000,24.000 Z" id="path-1" class="cls-2" fill-rule="evenodd"/>
</svg>
